resources/svg/knife-blood-line.svg

<svg fill="currentColor" viewBox="0 0 24 24" xmlns="http://www.w3.org/2000/svg"><path d="M4.34315 1.4082L22.3744 19.4394C22.9602 20.0252 22.9602 20.975 22.3744 21.5607C21.7886 22.1465 20.8388 22.1465 20.253 21.5607L15.6569 16.9646L12.1213 20.5001L8.001 16.3792L8.00129 19.0001C8.00129 19.5524 7.55358 20.0001 7.00129 20.0001C6.44901 20.0001 6.00129 19.5524 6.00129 19.0001V15.0001C6.00129 14.4478 5.55358 14.0001 5.00129 14.0001C4.48846 14.0001 4.06578 14.3861 4.00802 14.8835L4.00129 15.0001V16.0001C4.00129 16.5524 3.55358 17.0001 3.00129 17.0001C2.44901 17.0001 2.00129 16.5524 2.00129 16.0001L2.00138 7.21394C1.96402 5.19447 2.68678 3.16356 4.16964 1.58709L4.34315 1.4082ZM4.58437 4.47838L4.5329 4.58823C4.22968 5.2577 4.05601 5.97117 4.01149 6.69097L4.00129 7.00009L4.00024 7.1196C4.01358 8.55874 4.54144 9.9933 5.58066 11.1234L5.75736 11.3077L12.1207 17.6716L14.9491 14.8431L4.58437 4.47838Z"/></svg>

<svg xmlns="http://www.w3.org/2000/svg" viewBox="0 0 24 24" fill="currentColor">
    <g>
        <path fill="none" d="M0 0h24v24H0z"/>
        <path fill-rule="nonzero" d="M4.342 1.408L22.373 19.44a1.5 1.5 0 0 1-2.121 2.122l-4.596-4.597L12.12 20.5 8 16.38V19a1 1 0 0 1-2 0v-4a1 1 0 0 0-1.993-.117L4 15v1a1 1 0 0 1-2 0V7.214a7.976 7.976 0 0 1 2.168-5.627l.174-.179zm.241 3.07l-.051.11a5.993 5.993 0 0 0-.522 2.103L4 7l-.001.12a5.984 5.984 0 0 0 1.58 4.003l.177.185 6.363 6.363 2.829-2.828L4.583 4.478z"/>
    </g>
</svg>
